X: 18232
T: Humours Of Kinvara, The
R: reel
M: 4/4
K: Edorian
|:BE (3EEE BEdE|BE (3EEE BcdB|cA (3AAA cdec|1 (3Bcd AGFD FA:|2 (3Bcd ef ~e2 de||
|:~f3e dcec|~f3e d4|~f3e f^gaf|ecAc ~e2de:|

